Origami/32x32/apps/synfig_icon.svg

<svg width="32" height="32" version="1.1" viewBox="0 0 8.47 8.47" xmlns="http://www.w3.org/2000/svg">
 <path d="m4.2437011 0.79379135c-0.025688-7.2801e-4 -0.050503 0.00866-0.068287 0.0258275-0.2565882 0.24776455-0.5173708 0.52576455-0.7530606 0.79037525-2.74e-4 3.321e-4 -5.444e-4 6.667e-4 -8.112e-4 1e-3 -0.5807981 0.670252-1.0222549 1.3589308-1.3421777 2.0963026-0.2980187 0.6868864-0.4722618 1.2811049-0.6308472 2.146701-0.0347284 0.1895514-0.0698213 0.4192398-0.0940318 0.6040654-0.012105 0.092413-0.021505 0.1734892-0.026828 0.2334514-0.00266 0.029981-0.00421 0.054581-0.00461 0.074471-1.968e-4 0.0099-2.28e-4 0.01824 8.112e-4 0.028581 5.207e-4 0.0052 0.00101 0.01069 0.00379 0.02006 0.00279 0.0094 5.122e-4 0.028391 0.041189 0.051651 0.02195 0.01255 0.024904 0.01007 0.03035 0.01128 0.00544 0.0012 0.00966 0.0021 0.014091 0.0028 0.00886 0.0013 0.018259 0.0022 0.028995 0.0033 0.021474 0.0021 0.048063 0.0041 0.076146 0.0055 0.2226836 0.01128 0.5510624 0.063641 0.7687773 0.1226185 0.1469821 0.039811 0.2437506 0.072751 0.387234 0.1316446 0.033149 0.01361 0.063549 0.026051 0.086172 0.035101 0.011313 0.0045 0.020599 0.0081 0.027641 0.01078 0.00331 0.0013 0.00625 0.0022 0.00893 0.0032 1.691e-4 6.5e-5 3.729e-4 1.9e-4 5.42e-4 2.511e-4 4.33e-5 1.6e-5 2.237e-4 -2.4e-5 2.704e-4 0 9.54e-5 3.3e-5 1.76e-4 2.16e-4 2.706e-4 2.5e-4 0.00101 4.85e-4 0.00206 9.1e-4 0.00379 0.0017-1.032e-4 -2.2e-4 -4.708e-4 -6.29e-4 -8.112e-4 -7.7e-4 5.098e-4 1.75e-4 7.15e-4 2.92e-4 0.00136 5.01e-4 0.00114 3.78e-4 0.00239 9.8e-4 0.00515 0.0017 0.00109 3.01e-4 0.00192 8.4e-4 0.00325 0.0015-6.39e-4 -1.371e-4 -0.00304-1.021e-4 -0.00352-2.491e-4 0.00636 0.0031 0.013907 0.0071 0.024118 0.01229 0.024287 0.01236 0.057656 0.029481 0.094031 0.048401 0.3513838 0.1827367 0.6141647 0.3711776 1.0337984 0.7432341 0.055287 0.049011 0.1068042 0.093482 0.1457885 0.1263806 0.019492 0.01645 0.03568 0.029981 0.048506 0.040121 0.00641 5e-3 0.011833 0.0092 0.017613 0.01329 0.00289 2e-3 0.00569 0.0041 0.010568 7e-3 0.00245 0.0014 0.00544 0.0031 0.010839 0.0055 0.0054 0.0024 0.010781 0.0071 0.035769 0.0083 0.029937 0.0013 0.036149-0.0047 0.042273-0.0073 0.00613-0.0025 0.00927-0.0043 0.011923-0.0057 0.0053-3e-3 0.00829-0.0051 0.011381-0.0073 0.00618-0.0043 0.011764-0.0086 0.018698-0.01404 0.013868-0.01079 0.031579-0.025421 0.052841-0.043131 0.042513-0.035379 0.098768-0.08349 0.1593281-0.1366243 0.3471289-0.3045902 0.5151603-0.4333469 0.7568546-0.5817469 0.5278187-0.3240846 0.99816-0.4679335 1.7201971-0.5243267l0.058533-0.0045c0.047052-0.0036 0.083233-0.040061 0.083192-0.083752v-0.031831c7e-7 -0.066391-0.017071-0.2035138-0.040102-0.3733725-0.0230087-0.1697822-0.052468-0.3631143-0.0791016-0.5099563-0.1583981-0.8733787-0.3384829-1.4885078-0.640332-2.184063-0.271924-0.6265986-0.6612205-1.2595567-1.1264743-1.8325068-0.00104-0.00129-0.00213-0.00253-0.00325-0.00377-0.3131715-0.3430308-0.6160988-0.7030761-0.9465438-1.0368573-0.016535-0.01676904-0.0397029-0.02662934-0.0642228-0.02733216z" style="opacity:.2"/>
 <path d="m4.2437011 0.52920602c-0.025688-7.2801e-4 -0.050503 0.00866-0.068287 0.0258275-0.2565882 0.24776459-0.5173708 0.52576458-0.7530606 0.79037528-2.74e-4 3.321e-4 -5.444e-4 6.667e-4 -8.112e-4 1e-3 -0.5807981 0.670252-1.0222549 1.3589308-1.3421777 2.0963026-0.2980187 0.6868864-0.4722618 1.2811049-0.6308472 2.146701-0.0347284 0.1895514-0.0698213 0.4192398-0.0940318 0.6040654-0.0121048 0.0924128-0.0215045 0.1734892-0.0268276 0.2334514-0.00266 0.029981-0.00421 0.054581-0.00461 0.074471-1.968e-4 0.0099-2.28e-4 0.01824 8.112e-4 0.028581 5.207e-4 0.0052 0.00101 0.01069 0.00379 0.02006 0.00279 0.0094 5.122e-4 0.028391 0.041189 0.051651 0.02195 0.01255 0.024904 0.01007 0.03035 0.01128 0.00544 0.0012 0.00966 0.0021 0.014091 0.0028 0.00886 0.0013 0.018259 0.0022 0.028995 0.0033 0.021474 0.0021 0.048063 0.0041 0.076146 0.0055 0.2226836 0.01128 0.5510624 0.063641 0.7687773 0.1226185 0.1469821 0.039811 0.2437506 0.072751 0.387234 0.1316446 0.033149 0.01361 0.063549 0.026051 0.086172 0.035101 0.011313 0.0045 0.020599 0.0081 0.027641 0.01078 0.00331 0.0013 0.00625 0.0022 0.00893 0.0032 1.691e-4 6.5e-5 3.729e-4 1.9e-4 5.42e-4 2.511e-4 4.33e-5 1.6e-5 2.237e-4 -2.4e-5 2.704e-4 0 9.54e-5 3.3e-5 1.76e-4 2.16e-4 2.706e-4 2.5e-4 0.00101 4.85e-4 0.00206 9.1e-4 0.00379 0.0017-1.032e-4 -2.2e-4 -4.708e-4 -6.29e-4 -8.112e-4 -7.7e-4 5.098e-4 1.75e-4 7.15e-4 2.92e-4 0.00136 5.01e-4 0.00114 3.78e-4 0.00239 9.8e-4 0.00515 0.0017 0.00109 3.01e-4 0.00192 8.4e-4 0.00325 0.0015-6.39e-4 -1.371e-4 -0.00304-1.021e-4 -0.00352-2.491e-4 0.00636 0.0031 0.013907 0.0071 0.024118 0.01229 0.024287 0.01236 0.057656 0.029481 0.094031 0.048401 0.3513838 0.1827367 0.6141647 0.3711776 1.0337984 0.7432341 0.055287 0.049011 0.1068042 0.093482 0.1457885 0.1263806 0.019492 0.01645 0.03568 0.029981 0.048506 0.040121 0.00641 5e-3 0.011833 0.0092 0.017613 0.01329 0.00289 2e-3 0.00569 0.0041 0.010568 7e-3 0.00245 0.0014 0.00544 0.0031 0.010839 0.0055 0.0054 0.0024 0.010781 0.0071 0.035769 0.0083 0.029937 0.0013 0.036149-0.0047 0.042273-0.0073 0.00613-0.0025 0.00927-0.0043 0.011923-0.0057 0.0053-3e-3 0.00829-0.0051 0.011381-0.0073 0.00618-0.0043 0.011764-0.0086 0.018698-0.01404 0.013868-0.01079 0.031579-0.025421 0.052841-0.043131 0.042513-0.035379 0.098768-0.08349 0.1593281-0.1366243 0.3471285-0.3045902 0.5151599-0.4333469 0.7568542-0.5817469 0.5278187-0.3240846 0.99816-0.4679335 1.7201971-0.5243267l0.058533-0.0045c0.047052-0.0036 0.083233-0.040061 0.083192-0.083752v-0.031831c7e-7 -0.066391-0.017071-0.2035138-0.040102-0.3733725-0.0230087-0.1697822-0.052468-0.3631143-0.0791016-0.5099563-0.1583981-0.8733787-0.3384829-1.4885078-0.640332-2.184063-0.271924-0.6265986-0.6612205-1.2595567-1.1264743-1.8325068-0.00104-0.00129-0.00213-0.00253-0.00325-0.00377-0.3131715-0.3430308-0.6160988-0.70307611-0.9465438-1.0368573-0.016535-0.01676904-0.0397029-0.02662934-0.0642228-0.02733216z" style="fill:#0278dc"/>
 <path d="m4.2436482 0.53097352c-0.025688-7.2801e-4 -0.050429 0.00888-0.068212 0.0260455-0.2172885 0.20981541-0.4346868 0.44072282-0.6402049 0.66741108l0.7002456 4.0558346 0.69314-4.0493233c-0.202235-0.2276382-0.4055213-0.45516069-0.6206642-0.67247562-0.0165349-0.01676904-0.0397847-0.02678954-0.0643045-0.02749226zm-0.0081713 4.7492912 2.1298686-1.8756245c-0.1460872-0.329463-0.3263625-0.6592823-0.5311349-0.9817638zl2.6354238-0.3787423c-0.0648342-0.2679722-0.1381439-0.5183971-0.2209806-0.7618254zl2.8173241 1.3351841 0.00781-7.23e-4c0.047052-0.0036 0.083175-0.040231 0.083134-0.083922v-0.02749c8e-7 -0.066181-0.017115-0.2025521-0.040146-0.3718693-0.0116-0.085255-0.026114-0.1678956-0.03979-0.2561122l-0.0511521-0.1881054zl1.0324267 1.8582607 0.055778-0.01953c0.1959888-0.1174168 0.3860637-0.2101886 0.5844255-0.2828811zl-0.4369873 2.3209272c0.052938 0.045111 0.102598 0.085732 0.1609393 0.1374618 0.055286 0.049011 0.106678 0.093352 0.1456624 0.1262466 0.019492 0.01645 0.035848 0.030021 0.048672 0.040151 0.00641 5e-3 0.011629 0.0093 0.017409 0.01338 0.00289 2e-3 0.00578 4e-3 0.010658 0.0069 6.185e-4 3.52e-4 0.00211 1e-3 0.00284 0.0014l0.050805 9e-3 0.1442414-0.086452c0.040881-0.034231 0.090169-0.075691 0.145307-0.1240765 0.05324-0.046721 0.082528-0.067931 0.1282541-0.1070752zl-1.6569988 1.5638047c0.031499 0.01197 0.060111 0.02184 0.095924 0.036541 0.033149 0.01361 0.063708 0.026031 0.086332 0.035091 0.011313 0.0045 0.020315 0.0081 0.027356 0.01085 0.00331 0.0013 0.00654 0.0023 0.00923 0.0033 0 0 3.552e-4 3.62e-4 3.552e-4 3.62e-4h3.554e-4 3.551e-4c0.00101 4.85e-4 0.00181 9.69e-4 0.00356 0.0018-1.031e-4 -2.21e-4 -3.701e-4 -5.83e-4 -7.105e-4 -7.24e-4 5.099e-4 1.75e-4 7.818e-4 1.53e-4 0.00143 3.62e-4 0.00114 3.77e-4 0.00221 1e-3 0.00497 0.0018 0.00109 3e-4 0.00223 8.17e-4 0.00356 0.0014-6.392e-4 -1.38e-4 -0.00307 1.47e-4 -0.00356 0 0.00636 0.0031 0.013948 0.0071 0.024159 0.0123 0.024288 0.01236 0.057418 0.029191 0.093793 0.048111 0.093516 0.048631 0.1808638 0.098412 0.2664556 0.1512081zl-2.7945867 0.3671667c-0.0319 0.1790822-0.064084 0.3841578-0.086332 0.5534629-0.012105 0.092118-0.021677 0.1728285-0.027001 0.2325998-0.00261 0.029301-0.00419 0.053081-0.00462 0.072711-8.6e-6 3.891e-4 7.6e-6 0.0011 0 0.0014-1.067e-4 0.0081 1.841e-4 0.01546 0.00107 0.024241 5.206e-4 0.0052 7.683e-4 0.01052 0.00356 0.01989 0.00278 0.0094 5.346e-4 0.028461 0.041212 0.051731 0.021951 0.01255 0.025108 0.01 0.030553 0.01121 0.00544 0.0012 0.00943 0.0022 0.013856 0.0029 0.00886 0.0013 0.018396 0.0022 0.029133 0.0033 0.021474 0.0021 0.047946 4e-3 0.076029 0.0054 0.040699 0.0021 0.087854 0.0066 0.1342936 0.01121zl-2.4172856-1.1405677c-0.0795247 0.2330866-0.1500807 0.4732477-0.2128092 0.7296306zl-1.59376-2.8736666c-0.1935053 0.3029265-0.3611998 0.6128677-0.5066209 0.9311201z" style="fill-rule:evenodd;fill:#48a0f8"/>
 <path transform="scale(.26458333)" d="m16.039062 2c-0.097088-0.0027515-0.190597 0.0327712-0.257812 0.0976562-0.969782 0.9364331-1.954907 1.9881779-2.845703 2.9882813-0.001036 0.0012552-0.002898 6.934e-4 -0.003906 0.0019531-2.195143 2.5332359-3.863109 5.1369114-5.072266 7.9238284-1.1263699 2.596106-1.7853877 4.841737-2.3847656 8.113281-0.131257 0.716415-0.2639645 1.58465-0.3554688 2.283203-0.0457504 0.349277-0.0814437 0.656184-0.1015625 0.882813-0.0100535 0.113314-0.0160663 0.206075-0.0175781 0.28125-7.438e-4 0.037417-2.14e-5 0.068337 0.0039062 0.107422 0.001968 0.019653 0.0031648 0.040757 0.0136719 0.076171 0.0062704 0.021126 0.0198941 0.057078 0.0507813 0.09961 0.0172546-0.150135 0.0276059-0.270339 0.0507812-0.447266 0.0915043-0.698553 0.2242118-1.566788 0.3554688-2.283203 0.5993779-3.271544 1.2583957-5.517175 2.3847656-8.113281 1.209157-2.786917 2.877123-5.3905925 5.072266-7.9238284 0.001008-0.0012597 0.00287-6.979e-4 0.003906-0.0019531 0.890796-1.0001034 1.875921-2.0518483 2.845703-2.9882813 0.067215-0.064885 0.160724-0.1004077 0.257812-0.0976562 0.092674 0.0026563 0.179694 0.0401366 0.242188 0.1035156 1.248926 1.2615352 2.394485 2.6214744 3.578125 3.9179688 0.004233 0.0046866 0.007788 0.0107494 0.011719 0.015625 1.758439 2.1654807 3.230068 4.5575346 4.257812 6.9257816 1.140847 2.62887 1.821252 4.952947 2.419922 8.253906 0.100663 0.554993 0.211866 1.286038 0.298828 1.927734 0.043821 0.323187 0.049126 0.468784 0.076172 0.710938 0.040963-0.052472 0.076237-0.110492 0.076172-0.179688v-0.11914c3e-6 -0.250927-0.065297-0.770124-0.152344-1.41211-0.086962-0.641696-0.198165-1.372741-0.298828-1.927734-0.59867-3.300959-1.279075-5.625036-2.419922-8.253906-1.027744-2.368247-2.499373-4.7603009-4.257812-6.9257816-0.003931-0.0048756-0.007486-0.0109384-0.011719-0.015625-1.18364-1.2964944-2.329199-2.6564335-3.578125-3.9179688-0.062494-0.063379-0.149514-0.1008593-0.242188-0.1035156z" style="fill:#ffffff;opacity:.2"/>
</svg>

<svg xmlns="http://www.w3.org/2000/svg" width="32" height="32" version="1.1" viewBox="0 0 8.47 8.47">
 <path style="opacity:0.2" d="m 4.2437011,0.79379135 c -0.025688,-7.2801e-4 -0.050503,0.00866 -0.068287,0.0258275 C 3.9188259,1.0673834 3.6580433,1.3453834 3.4223535,1.6099941 c -2.74e-4,3.321e-4 -5.444e-4,6.667e-4 -8.112e-4,0.001 C 2.8407442,2.2812461 2.3992874,2.9699249 2.0793646,3.7072967 1.7813459,4.3941831 1.6071028,4.9884016 1.4485174,5.8539977 1.413789,6.0435491 1.3786961,6.2732375 1.3544856,6.4580631 c -0.012105,0.092413 -0.021505,0.1734892 -0.026828,0.2334514 -0.00266,0.029981 -0.00421,0.054581 -0.00461,0.074471 -1.968e-4,0.0099 -2.28e-4,0.01824 8.112e-4,0.028581 5.207e-4,0.0052 0.00101,0.01069 0.00379,0.02006 0.00279,0.0094 5.122e-4,0.028391 0.041189,0.051651 0.02195,0.01255 0.024904,0.01007 0.03035,0.01128 0.00544,0.0012 0.00966,0.0021 0.014091,0.0028 0.00886,0.0013 0.018259,0.0022 0.028995,0.0033 0.021474,0.0021 0.048063,0.0041 0.076146,0.0055 0.2226836,0.01128 0.5510624,0.063641 0.7687773,0.1226185 0.1469821,0.039811 0.2437506,0.072751 0.387234,0.1316446 0.033149,0.01361 0.063549,0.026051 0.086172,0.035101 0.011313,0.0045 0.020599,0.0081 0.027641,0.01078 0.00331,0.0013 0.00625,0.0022 0.00893,0.0032 1.691e-4,6.5e-5 3.729e-4,1.9e-4 5.42e-4,2.511e-4 4.33e-5,1.6e-5 2.237e-4,-2.4e-5 2.704e-4,0 9.54e-5,3.3e-5 1.76e-4,2.16e-4 2.706e-4,2.5e-4 0.00101,4.85e-4 0.00206,9.1e-4 0.00379,0.0017 -1.032e-4,-2.2e-4 -4.708e-4,-6.29e-4 -8.112e-4,-7.7e-4 5.098e-4,1.75e-4 7.15e-4,2.92e-4 0.00136,5.01e-4 0.00114,3.78e-4 0.00239,9.8e-4 0.00515,0.0017 0.00109,3.01e-4 0.00192,8.4e-4 0.00325,0.0015 -6.39e-4,-1.371e-4 -0.00304,-1.021e-4 -0.00352,-2.491e-4 0.00636,0.0031 0.013907,0.0071 0.024118,0.01229 0.024287,0.01236 0.057656,0.029481 0.094031,0.048401 0.3513838,0.1827367 0.6141647,0.3711776 1.0337984,0.7432341 0.055287,0.049011 0.1068042,0.093482 0.1457885,0.1263806 0.019492,0.01645 0.03568,0.029981 0.048506,0.040121 0.00641,0.005 0.011833,0.0092 0.017613,0.01329 0.00289,0.002 0.00569,0.0041 0.010568,0.007 0.00245,0.0014 0.00544,0.0031 0.010839,0.0055 0.0054,0.0024 0.010781,0.0071 0.035769,0.0083 0.029937,0.0013 0.036149,-0.0047 0.042273,-0.0073 0.00613,-0.0025 0.00927,-0.0043 0.011923,-0.0057 0.0053,-0.003 0.00829,-0.0051 0.011381,-0.0073 0.00618,-0.0043 0.011764,-0.0086 0.018698,-0.01404 0.013868,-0.01079 0.031579,-0.025421 0.052841,-0.043131 0.042513,-0.035379 0.098768,-0.08349 0.1593281,-0.1366243 C 4.8720798,7.6832158 5.0401112,7.5544591 5.2818055,7.4060591 5.8096242,7.0819745 6.2799655,6.9381256 7.0020026,6.8817324 l 0.058533,-0.0045 c 0.047052,-0.0036 0.083233,-0.040061 0.083192,-0.083752 v -0.031831 c 7e-7,-0.066391 -0.017071,-0.2035138 -0.040102,-0.3733725 C 7.0806169,6.2184947 7.0511576,6.0251626 7.024524,5.8783206 6.8661259,5.0049419 6.6860411,4.3898128 6.384192,3.6942576 6.112268,3.067659 5.7229715,2.4347009 5.2577177,1.8617508 c -0.00104,-0.00129 -0.00213,-0.00253 -0.00325,-0.00377 C 4.9412962,1.51495 4.6383689,1.1549047 4.3079239,0.82112351 4.2913889,0.80435447 4.268221,0.79449417 4.2437011,0.79379135 Z"/>
 <path style="fill:#0278dc" d="m 4.2437011,0.52920602 c -0.025688,-7.2801e-4 -0.050503,0.00866 -0.068287,0.0258275 C 3.9188259,0.80279811 3.6580433,1.0807981 3.4223535,1.3454088 c -2.74e-4,3.321e-4 -5.444e-4,6.667e-4 -8.112e-4,0.001 C 2.8407442,2.0166608 2.3992874,2.7053396 2.0793646,3.4427114 1.7813459,4.1295978 1.6071028,4.7238163 1.4485174,5.5894124 1.413789,5.7789638 1.3786961,6.0086522 1.3544856,6.1934778 1.3423808,6.2858906 1.3329811,6.366967 1.327658,6.4269292 c -0.00266,0.029981 -0.00421,0.054581 -0.00461,0.074471 -1.968e-4,0.0099 -2.28e-4,0.01824 8.112e-4,0.028581 5.207e-4,0.0052 0.00101,0.01069 0.00379,0.02006 0.00279,0.0094 5.122e-4,0.028391 0.041189,0.051651 0.02195,0.01255 0.024904,0.01007 0.03035,0.01128 0.00544,0.0012 0.00966,0.0021 0.014091,0.0028 0.00886,0.0013 0.018259,0.0022 0.028995,0.0033 0.021474,0.0021 0.048063,0.0041 0.076146,0.0055 0.2226836,0.01128 0.5510624,0.063641 0.7687773,0.1226185 0.1469821,0.039811 0.2437506,0.072751 0.387234,0.1316446 0.033149,0.01361 0.063549,0.026051 0.086172,0.035101 0.011313,0.0045 0.020599,0.0081 0.027641,0.01078 0.00331,0.0013 0.00625,0.0022 0.00893,0.0032 1.691e-4,6.5e-5 3.729e-4,1.9e-4 5.42e-4,2.511e-4 4.33e-5,1.6e-5 2.237e-4,-2.4e-5 2.704e-4,0 9.54e-5,3.3e-5 1.76e-4,2.16e-4 2.706e-4,2.5e-4 0.00101,4.85e-4 0.00206,9.1e-4 0.00379,0.0017 -1.032e-4,-2.2e-4 -4.708e-4,-6.29e-4 -8.112e-4,-7.7e-4 5.098e-4,1.75e-4 7.15e-4,2.92e-4 0.00136,5.01e-4 0.00114,3.78e-4 0.00239,9.8e-4 0.00515,0.0017 0.00109,3.01e-4 0.00192,8.4e-4 0.00325,0.0015 -6.39e-4,-1.371e-4 -0.00304,-1.021e-4 -0.00352,-2.491e-4 0.00636,0.0031 0.013907,0.0071 0.024118,0.01229 0.024287,0.01236 0.057656,0.029481 0.094031,0.048401 0.3513838,0.1827367 0.6141647,0.3711776 1.0337984,0.7432341 0.055287,0.049011 0.1068042,0.093482 0.1457885,0.1263806 0.019492,0.01645 0.03568,0.029981 0.048506,0.040121 0.00641,0.005 0.011833,0.0092 0.017613,0.01329 0.00289,0.002 0.00569,0.0041 0.010568,0.007 0.00245,0.0014 0.00544,0.0031 0.010839,0.0055 0.0054,0.0024 0.010781,0.0071 0.035769,0.0083 0.029937,0.0013 0.036149,-0.0047 0.042273,-0.0073 0.00613,-0.0025 0.00927,-0.0043 0.011923,-0.0057 0.0053,-0.003 0.00829,-0.0051 0.011381,-0.0073 0.00618,-0.0043 0.011764,-0.0086 0.018698,-0.01404 0.013868,-0.01079 0.031579,-0.025421 0.052841,-0.043131 0.042513,-0.035379 0.098768,-0.08349 0.1593281,-0.1366243 C 4.8720798,7.4186305 5.0401112,7.2898738 5.2818055,7.1414738 5.8096242,6.8173892 6.2799655,6.6735403 7.0020026,6.6171471 l 0.058533,-0.0045 c 0.047052,-0.0036 0.083233,-0.040061 0.083192,-0.083752 v -0.031831 c 7e-7,-0.066391 -0.017071,-0.2035138 -0.040102,-0.3733725 C 7.0806169,5.9539094 7.0511576,5.7605773 7.024524,5.6137353 6.8661259,4.7403566 6.6860411,4.1252275 6.384192,3.4296723 6.112268,2.8030737 5.7229715,2.1701156 5.2577177,1.5971655 c -0.00104,-0.00129 -0.00213,-0.00253 -0.00325,-0.00377 C 4.9412962,1.2503647 4.6383689,0.89031939 4.3079239,0.55653818 4.2913889,0.53976914 4.268221,0.52990884 4.2437011,0.52920602 Z"/>
 <path style="fill:#48a0f8;fill-rule:evenodd" d="m 4.2436482,0.53097352 c -0.025688,-7.2801e-4 -0.050429,0.00888 -0.068212,0.0260455 C 3.9581477,0.76683443 3.7407494,0.99774184 3.5352313,1.2244301 l 0.7002456,4.0558346 0.69314,-4.0493233 C 4.7263819,1.0033032 4.5230956,0.77578071 4.3079527,0.55846578 4.2914178,0.54169674 4.268168,0.53167624 4.2436482,0.53097352 Z M 4.2354769,5.2802647 6.3653455,3.4046402 C 6.2192583,3.0751772 6.038983,2.7453579 5.8342106,2.4228764 Z m 0,0 2.6354238,-0.3787423 C 6.8060665,4.6335502 6.7327568,4.3831253 6.6499201,4.139697 Z m 0,0 2.8173241,1.3351841 0.00781,-7.23e-4 c 0.047052,-0.0036 0.083175,-0.040231 0.083134,-0.083922 v -0.02749 C 7.1437458,6.4371328 7.12663,6.3007617 7.103599,6.1314445 7.091999,6.0461895 7.077485,5.9635489 7.063809,5.8753323 L 7.0126569,5.6872269 Z m 0,0 1.0324267,1.8582607 0.055778,-0.01953 C 5.5196704,7.0015786 5.7097453,6.9088068 5.9081071,6.8361143 Z m 0,0 -0.4369873,2.3209272 c 0.052938,0.045111 0.102598,0.085732 0.1609393,0.1374618 0.055286,0.049011 0.106678,0.093352 0.1456624,0.1262466 0.019492,0.01645 0.035848,0.030021 0.048672,0.040151 0.00641,0.005 0.011629,0.0093 0.017409,0.01338 0.00289,0.002 0.00578,0.004 0.010658,0.0069 6.185e-4,3.52e-4 0.00211,0.001 0.00284,0.0014 l 0.050805,0.009 0.1442414,-0.086452 c 0.040881,-0.034231 0.090169,-0.075691 0.145307,-0.1240765 0.05324,-0.046721 0.082528,-0.067931 0.1282541,-0.1070752 z m 0,0 -1.6569988,1.5638047 c 0.031499,0.01197 0.060111,0.02184 0.095924,0.036541 0.033149,0.01361 0.063708,0.026031 0.086332,0.035091 0.011313,0.0045 0.020315,0.0081 0.027356,0.01085 0.00331,0.0013 0.00654,0.0023 0.00923,0.0033 0,0 3.552e-4,3.62e-4 3.552e-4,3.62e-4 0,0 3.554e-4,0 3.554e-4,0 0,0 3.551e-4,0 3.551e-4,0 0.00101,4.85e-4 0.00181,9.69e-4 0.00356,0.0018 -1.031e-4,-2.21e-4 -3.701e-4,-5.83e-4 -7.105e-4,-7.24e-4 5.099e-4,1.75e-4 7.818e-4,1.53e-4 0.00143,3.62e-4 0.00114,3.77e-4 0.00221,0.001 0.00497,0.0018 0.00109,3e-4 0.00223,8.17e-4 0.00356,0.0014 -6.392e-4,-1.38e-4 -0.00307,1.47e-4 -0.00356,0 0.00636,0.0031 0.013948,0.0071 0.024159,0.0123 0.024288,0.01236 0.057418,0.029191 0.093793,0.048111 0.093516,0.048631 0.1808638,0.098412 0.2664556,0.1512081 z m 0,0 -2.7945867,0.3671667 c -0.0319,0.1790822 -0.064084,0.3841578 -0.086332,0.5534629 -0.012105,0.092118 -0.021677,0.1728285 -0.027001,0.2325998 -0.00261,0.029301 -0.00419,0.053081 -0.00462,0.072711 -8.6e-6,3.891e-4 7.6e-6,0.0011 0,0.0014 -1.067e-4,0.0081 1.841e-4,0.01546 0.00107,0.024241 5.206e-4,0.0052 7.683e-4,0.01052 0.00356,0.01989 0.00278,0.0094 5.346e-4,0.028461 0.041212,0.051731 0.021951,0.01255 0.025108,0.01 0.030553,0.01121 0.00544,0.0012 0.00943,0.0022 0.013856,0.0029 0.00886,0.0013 0.018396,0.0022 0.029133,0.0033 0.021474,0.0021 0.047946,0.004 0.076029,0.0054 0.040699,0.0021 0.087854,0.0066 0.1342936,0.01121 z m 0,0 L 1.8181913,4.139697 C 1.7386666,4.3727836 1.6681106,4.6129447 1.6053821,4.8693276 Z m 0,0 -1.59376,-2.8736666 C 2.4482116,2.7095246 2.2805171,3.0194658 2.135096,3.3377182 Z"/>
 <path style="opacity:0.2;fill:#ffffff" d="M 16.039062 2 C 15.941974 1.9972485 15.848465 2.0327712 15.78125 2.0976562 C 14.811468 3.0340893 13.826343 4.0858341 12.935547 5.0859375 C 12.934511 5.0871927 12.932649 5.0866309 12.931641 5.0878906 C 10.736498 7.6211265 9.068532 10.224802 7.859375 13.011719 C 6.7330051 15.607825 6.0739873 17.853456 5.4746094 21.125 C 5.3433524 21.841415 5.2106449 22.70965 5.1191406 23.408203 C 5.0733902 23.75748 5.0376969 24.064387 5.0175781 24.291016 C 5.0075246 24.40433 5.0015118 24.497091 5 24.572266 C 4.9992562 24.609683 4.9999786 24.640603 5.0039062 24.679688 C 5.0058742 24.699341 5.007071 24.720445 5.0175781 24.755859 C 5.0238485 24.776985 5.0374722 24.812937 5.0683594 24.855469 C 5.085614 24.705334 5.0959653 24.58513 5.1191406 24.408203 C 5.2106449 23.70965 5.3433524 22.841415 5.4746094 22.125 C 6.0739873 18.853456 6.7330051 16.607825 7.859375 14.011719 C 9.068532 11.224802 10.736498 8.6211265 12.931641 6.0878906 C 12.932649 6.0866309 12.934511 6.0871927 12.935547 6.0859375 C 13.826343 5.0858341 14.811468 4.0340892 15.78125 3.0976562 C 15.848465 3.0327712 15.941974 2.9972485 16.039062 3 C 16.131736 3.0026563 16.218756 3.0401366 16.28125 3.1035156 C 17.530176 4.3650508 18.675735 5.72499 19.859375 7.0214844 C 19.863608 7.026171 19.867163 7.0322338 19.871094 7.0371094 C 21.629533 9.2025901 23.101162 11.594644 24.128906 13.962891 C 25.269753 16.591761 25.950158 18.915838 26.548828 22.216797 C 26.649491 22.77179 26.760694 23.502835 26.847656 24.144531 C 26.891477 24.467718 26.896782 24.613315 26.923828 24.855469 C 26.964791 24.802997 27.000065 24.744977 27 24.675781 L 27 24.556641 C 27.000003 24.305714 26.934703 23.786517 26.847656 23.144531 C 26.760694 22.502835 26.649491 21.77179 26.548828 21.216797 C 25.950158 17.915838 25.269753 15.591761 24.128906 12.962891 C 23.101162 10.594644 21.629533 8.2025901 19.871094 6.0371094 C 19.867163 6.0322338 19.863608 6.026171 19.859375 6.0214844 C 18.675735 4.72499 17.530176 3.3650509 16.28125 2.1035156 C 16.218756 2.0401366 16.131736 2.0026563 16.039062 2 z" transform="scale(0.26458333)"/>
</svg>
